X:1
T:Til Statsminister Emil Stang
T:Til Statsminister Emil Stang
T:Christian Haslerud
C:Christian Haslerud
%%score [ 1 2 3 4 ]
L:1/8
Q:1/4=92
M:4/4
K:C
V:1 treble-8 nm="T1"
V:2 treble-8 nm="T2"
V:3 bass nm="B1"
V:4 bass nm="B2"
V:1
!f!"^Kraftigt" G2 | E2 F3/2 G/ A2 B3/2 f/ | e2 c2 !breath!d2 d2 | (cB) A G d2 A3/2 B/ | %4
w: 1.Mens|Bul- de- ret ly- der fra|Kam- pens Plads, Og|Vaab- * ne- ne klir- rer i|
 G4 z2!mf! G2 | E2 F3/2 G/ A2 B3/2 f/ | e2 A2 !breath!e2 e2 |!p! (dc) B!>(! A c2 B3/2 c/!>)! | %8
w: Dyst, Og|Ha- det gaar höit og gjör|Tun- gen hvas, Din|Stil- * ling er ei blot til|
 A4 z2!ff! G3/2 G/ | !>!f2 G3/2 G/ !>!e2 G3/2 G/ | !>!d2 e3/2 e/ !breath!d2 G2 | %11
w: Lyst. Det er|du, som skal rok- kes, dit|Verk, som skal ned, Din|
 f2 G3/2 G/ e2 d3/2 d/ | g4 !breath!G2!p! G2 | G2 A3/2 G/!<(! G2 d3/2!<)! G/ | %14
w: Gjer- ning man kjæ- trer og|spar- ker! Thi|du staar paa Post mod det|
!f! (_ec)"^rall." A ^F !fermata!G2 G2 | =e2!<(! d3/2 c/!<)! A2 f3/2 d/ |!>(! (c4 B4)!>)! | c4 z2 |] %18
w: her- * jen- de Skud, Som|tru- er dit Fæ- dre- lands|Mar- *|ker.|
V:2
!f! G2 | E2 F3/2 G/ A2 B3/2 B/ | c2 c2 !breath!B2 B2 | G2 G G G2 ^F3/2 F/ | G4 z2!mf! G2 | %5
w: 1.Mens|Bul- de- ret ly- der fra|Kam- pens Plads, Og|Vaab- ne- ne klir- rer i|Dyst, Og|
 E2 F3/2 G/ A2 B3/2 B/ | c2 A2 !breath!B2 B2 |!p! A2 A!>(! A A2 ^G3/2 G/!>)! | E4 z2!ff! F3/2 F/ | %9
w: Ha- det gaar höit og gjör|Tun- gen hvas, Din|Stil- ling er ei blot til|Lyst. Det er|
 !>!G2 G3/2 G/ !>!G2 G3/2 G/ | !>!G2 c3/2 c/ !breath!B2 G2 | d2 G3/2 G/ c2 c3/2 c/ | %12
w: du, som skal rok- kes, dit|Verk, som skal ned, Din|Gjer- ning man kjæ- trer og|
 d4 !breath!G2!p! G2 | F2 F3/2 F/!<(! F2 F3/2!<)! F/ |!f! ^F2"^rall." _E E !fermata!D2 G2 | %15
w: spar- ker! Thi|du staar paa Post mod det|her- jen- de Skud, Som|
 c2!<(! B3/2 G/!<)! A2 A3/2 A/ |!>(! G8!>)! | G4 z2 |] %18
w: tru- er dit Fæ- dre- lands|Mar-|ker.|
V:3
!f! G,2 | C,2 D,3/2 E,/ F,2 G,3/2 G,/ | G,2 G,2 !breath!G,2 G,2 | G,2 E, E, D,2 D,3/2 D,/ | %4
w: 1.Mens|Bul- de- ret ly- der fra|Kam- pens Plads, Og|Vaab- ne- ne klir- rer i|
 G,4 z2!mf! G,2 | C,2 D,3/2 E,/ F,2 A,3/2 A,/ | A,2 A,2 !breath!^G,2 E,2 | %7
w: Dyst, Og|Ha- det gaar höit og gjör|Tun- gen hvas, Din|
!p! E,2 F,!>(! F, E,2 E,3/2 E,/!>)! | C,4 z2!ff! D,3/2 D,/ | !>!D,2 D,3/2 D,/ !>!C,2 E,3/2 E,/ | %10
w: Stil- ling er ei blot til|Lyst. Det er|du, som skal rok- kes, dit|
 !>!G,2 G,3/2 G,/ !breath!G,2 G,2 | G,2 G,3/2 G,/ G,2 A,3/2 A,/ | B,4 !breath!G,2!p! G,2 | %13
w: Verk, som skal ned, Din|Gjer- ning man kjæ- trer og|spar- ker! Thi|
 B,,2 B,,3/2 B,,/!<(! B,,2 B,,3/2!<)! B,,/ |!f! C,2"^rall." C, C, !fermata!B,,2 G,2 | %15
w: du staar paa Post mod det|her- jen- de Skud, Som|
 G,2!<(! F,3/2 G,/!<)! F,2 F,3/2 F,/ |!>(! (E,4 F,4)!>)! | G,4 z2 |] %18
w: tru- er dit Fæ- dre- lands|Mar- *|ker.|
V:4
!f! G,2 | C,2 D,3/2 E,/ F,2 F,3/2 D,/ | C,2 E,2 !breath!G,2 F,2 | E,2 C, C, B,,2 D,3/2 D,/ | %4
w: 1.Mens|Bul- de- ret ly- der fra|Kam- pens Plads, Og|Vaab- ne- ne klir- rer i|
 G,,4 z2!mf! G,2 | C,2 D,3/2 E,/ F,2 F,3/2 D,/ | A,2 F,2 !breath!E,2 ^G,,2 | %7
w: Dyst, Og|Ha- det gaar höit og gjör|Tun- gen hvas, Din|
!p! A,,2 D,!>(! D, E,2 E,3/2 E,/!>)! | A,,4 z2!ff! B,,3/2 B,,/ | %9
w: Stil- ling er ei blot til|Lyst. Det er|
 !>!B,,2 B,,3/2 B,,/ !>!C,2 C,3/2 C,/ | !>!B,,2 C,3/2 C,/ !breath!G,2 G,2 | %11
w: du, som skal rok- kes, dit|Verk, som skal ned, Din|
 B,,2 G,3/2 G,/ C,2 A,3/2 A,/ | G,4 !breath!G,,2!p! G,,2 | %13
w: Gjer- ning man kjæ- trer og|spar- ker! Thi|
 G,,2 G,,3/2 G,,/!<(! G,,2 G,,3/2!<)! G,,/ |!f! G,,2"^rall." G,, G,, !fermata!G,,2 G,,2 | %15
w: du staar paa Post mod det|her- jen- de Skud, Som|
 C,2!<(! D,3/2 E,/!<)! F,2 D,3/2 D,/ |!>(! G,,8!>)! | C,4 z2 |] %18
w: tru- er dit Fæ- dre- lands|Mar-|ker.|

